X:1
T:Deilig Er Jorden
T:Deilig Er Jorden
%%score [ ( 1 2 ) ( 3 4 ) ( 5 6 ) ( 7 8 ) ]
L:1/8
M:4/4
K:Eb
V:1 treble nm="Soprano" snm="S."
V:2 treble 
V:3 treble nm="Alto" snm="A."
V:4 treble 
V:5 treble-8 nm="Tenor" snm="T."
V:6 treble-8 
V:7 bass nm="Bass" snm="B."
V:8 bass 
V:1
 E4 E2 E2 | (F2 D2) E4 | G2 G2 G2 G2 | (=A2 F2) G4 | B4 (e2 c2) | B4 =A2 G2 | =A4 G4 | F6 z2 | %8
w: Dei- lig er|jor- * den,|prek- tig er Guds|him- * mel.|Skjønn er _|sje- le- nes|pil- grims-|sang!|
w: Ti- der skal|kom- * me,|ti- der skal hen-|rul- * le.|Slekt skal _|føl- ge _|slek- ters|gang.|
w: Eng- le- ne|sang _ den|først for mar- kens|hyr- * der;|Skjønt fra _|sjel til _|sjel det|lød:|
 B4 c2 B2 | (B2 G2) =A4 | =A4 B2 A2 | (=A2 F2) G2 G2 | G2 G2 _B2 =A2 | G4 F4 | E6 z2 :| %15
w: Gen- nom de|fag- * re|ri- ker på|jor- * den går|vi til pa- ra-|dis med|sang.|
w: Al- dri for-|stum- * mer|to- nen fra|him- * len *|i * gla- de|pil- grims-|sang.|
w: Fred o- ver|jor- * den,|men- ne- ske|fryd _ dig! *|Oss * e- vig|Frel- ser|født.|
V:2
 x8 | x8 | x8 | x8 | x8 | x8 | x8 | x8 | x8 | x8 | x8 | x4 G4 | x2 G G x4 | x8 | x8 :| %15
w: |||||||||||||||
w: ||||||||||||sje- lens|||
w: ||||||||||||er en|||
V:3
 B,4 C2 C2 | (C2 B,2) B,4 | E2 E2 D2 E2 | (C2 D2) E4 | G4 ((G2 =A2)) | F4 E2 E2 | (C2 D2) E4 | %7
 D6 z2 | E4 E2 F2 | =E4 F4 | C4 F2 E2 | D4 E2 E2 | D2 E2 E2 E2 | E4 D4 | B,6 z2 :| %15
V:4
 x8 | x8 | x8 | x8 | x8 | x8 | x8 | x8 | x8 | x8 | x8 | x4 E4 | x2 E E x4 | x8 | x8 :| %15
V:5
 G4 G2 G2 | (=A2 F2) G4 | B2 c2 B2 B2 | (=A2 B2) B4 | e4 e4 | d4 c2 c2 | =A4 B4 | B6 z2 | %8
w: Dei- lig er|jor- * den,|prek- tig er Guds|him- * mel.|Skjønn er|sje- le- nes|pil- grims-||
w: Ti- der skal|kom- * me,|ti- der skal hen-|rul- * le.|Slekt skal|føl- ge _|slek- ters||
w: Eng- le- ne|sang _ den|først for mar- kens|hyr- * der;|Skjønt fra|sjel til _|sjel det||
 B4 =A2 F2 | c4 c4 | =A4 F2 A2 | B4 (B2 c2) | G2 c2 _B2 c2 | B6 =A2 | G6 z2 :| %15
w: sang! * Gen-|nom de|fag- * re|ri- ker på|jor- * den går|vi til|pa-|
w: gang. * Al-|dri for-|stum- * mer|to- nen fra|him- * len *|i *|gla-|
w: lød: * Fred|o- ver|jor- * den,|men- ne- ske|fryd _ dig! *|Oss *|e-|
V:6
 x8 | x8 | x8 | x8 | x8 | x8 | x8 | x8 | x8 | x8 | x8 | x8 | x2 c c x4 | x8 | x8 :| %15
w: |||||||||||||||
w: ||||||||||||* sje-|||
w: ||||||||||||* er|||
V:7
 E,4 C,2 B,,2 | (=A,,2 B,,2) E,4 | E,2 C,2 G,2 E,2 | (F,2 B,,2) E,4 | E,4 (C,2 =A,,2) | %5
 B,,4 C,2 C,2 | F,,4 (G,,2 =A,,2) | B,,6 z2 | G,4 =A,2 _D,2 | C,4 F,4 | (F,2 _E,2) =D,2 C,2 | %11
 B,,4 (E,2 C,2) | =B,,2 C,2 G,,2 =A,,2 | B,,4 B,,4 | E,6 z2 :| %15
V:8
 x8 | x8 | x8 | x8 | x8 | x8 | x8 | x8 | x8 | x8 | x8 | x8 | x2 C, C, x4 | x8 | x8 :| %15

